X:1
T:Marchioness of Huntley's [1] Strathspey, The
T:Marchioness of Huntley's [1] Strathspey, The
T:William Marshall
C:William Marshall
L:1/8
M:2/2
K:Bb
V:1 treble 
V:1
 B,>D(F>D) (E<G) F2 | (G>c) c>d (e/d/)c/B/ (A/G/)F/E/ | D>E(F>D) (E<G) F2 | %3
 G>c (B/A/)G/F/ B2 B,2 :| (d<f) B>f d>f (e/d/)c/B/ | A>cF>c AcFe | (d<f) B>f d>f (e/d/)c/B/ | %7
 A/B/c/de/ B/A/G/F/ B2 B,>e | (d<f) B>f (d/f/)g/a/ b>B | Accd e/d/c/B/ A/G/F/E/ | %10
 D>E(FD) (E<G) F2 | G>c (B/A/)G/F/ B2 B,2 || %12

